X: 121
T:Castle Kelly
M:C|
L:1/8
R:Reel
Z:
K:AMin
A2cA ABcA|G2EG ~G2EG|A2cA GAcd|ecdB cAAG|!
A2cA ABcA|"var."GcEG ~G2EG|A2cA GAcd|ecdB cA~A2:|!
|:agec d2ed|cAGE ~G2G2|agec d2cd|eaag a2ba|!
gedc dfed|cAGE G2EG|A2cA GAcd|ecdB cA~A2:|]!
